src/main/resources/icons/SpringBootApiIcons/icons/SpringBoot.svg

<svg xmlns="http://www.w3.org/2000/svg" width="16" height="16" viewBox="0 0 16 16">
  <g fill="none" fill-rule="evenodd">
    <path fill="#9AA7B0" d="M9,8 L14,8 L16,12 L14,16 L9,16 L7,12 L9,8 Z M11,9.55000906 C9.85887984,9.78164422 9,10.790521 9,12 C9,13.3807119 10.1192881,14.5 11.5,14.5 C12.8807119,14.5 14,13.3807119 14,12 C14,10.790521 13.1411202,9.78164422 12,9.55000906 L12,9 L11,9 L11,9.55000906 Z M11,10.5853529 L11,12 L12,12 L12,10.5853529 C12.5825962,10.7912711 13,11.3468906 13,12 C13,12.8284271 12.3284271,13.5 11.5,13.5 C10.6715729,13.5 10,12.8284271 10,12 C10,11.3468906 10.4174038,10.7912711 11,10.5853529 Z"/>
    <path fill="#62B543" fill-opacity=".7" d="M7.11986314,14.2906291 C6.16217487,14.2651527 5.242597,14.2186293 4.44717245,14.2546012 C4.44717245,14.2546012 3.94283089,14.2832335 3.43439732,14.3670851 C3.43439732,14.3670851 3.62672229,14.2852786 3.87224354,14.2004045 C5.08608667,13.7808561 5.91178748,13.5647153 6.6453012,13.3199343 L7.11986314,14.2906291 Z M12.9131326,7 C12.970498,6.7949321 13.017646,6.58864726 13.0537151,6.3817562 C12.9824615,6.59040058 12.8992901,6.79665551 12.805308,7 L8.44444444,7 L6,12 L6.15802311,12.3232291 C4.5235566,12.8043742 2.50243959,13.2066371 2.50243959,13.2074791 L2.38172498,13.1430565 C0.354128707,12.1572892 0.297863422,7.76939754 3.97863607,6.35516911 C5.59293826,5.73446293 7.13665308,6.07600472 8.88087692,5.65981457 C10.7417233,5.21805992 12.8961723,3.81917019 13.7718647,2 C14.3275042,3.64599789 14.9458864,5.81692056 14.9966495,7.90223759 L14.5555556,7 L12.9131326,7 Z"/>
  </g>
</svg>

<svg xmlns="http://www.w3.org/2000/svg" width="16" height="16" viewBox="0 0 16 16"><rect id="frame" width="16" height="16" fill="none"/><g fill="none" fill-rule="evenodd"><path fill="#9AA7B0" d="M9 8h5l2 4-2 4H9l-2-4 2-4zm2 1.55a2.5 2.5 0 1 0 1 0V9h-1v.55zm0 1.035V12h1v-1.415a1.5 1.5 0 1 1-1 0z"/><path fill="#62B543" fill-opacity=".7" d="M7.12 14.29c-.958-.025-1.877-.071-2.673-.035 0 0-.504.028-1.013.112 0 0 .193-.082.438-.167 1.214-.42 2.04-.635 2.773-.88l.475.97zM12.913 7c.057-.205.105-.411.14-.618a6.42 6.42 0 0 1-.248.618h-4.36L6 12l.158.323c-1.634.481-3.656.884-3.656.884l-.12-.064C.354 12.157.298 7.77 3.979 6.355c1.614-.62 3.158-.279 4.902-.695 1.86-.442 4.015-1.84 4.89-3.66.557 1.646 1.175 3.817 1.226 5.902L14.556 7h-1.643z"/></g></svg>
